X:092
T:Mr Benton’s Hornpipe TS.092
T:Holywell Hp,aka TS.092
M:C|
L:1/8
Q:1/2=90
S:Thomas Sands’ MS,1810,Lincolnshire
R:.hornpipe
O:England;Lincolnshire
Z:vmp.Ruairidh Greig, 2011
K:F
(AB)|c2cf dcBA|dfef dcBA|GFAF CFAF|GABc BAGF|
c2(cf) dcBA|dfef dcBA|f2af dBGE|F2F2F2:|
|:AB|c2cd cAGF|d2d2d2(GA)|BABc BGEc|cfeg f2AB|
cAcf dBdf|ecegf2(fg)|afaf dBGE|F2F2F2:|]

